X:168
T: Die Mordeltern
N: Q0085J
O: Mitteleuropa, Deutschland / Frankreich, Lothringen
R: Ballade, Habgier, Mord, Reue, Selbstmord
M: 3/4
L: 1/16
K: G
D2D2E2F2 | G6D2G2A2B2 | A6
c2B2A2 | G6DE=F2E2 | D6z2
A3c | B2A2G4 | B2A2G4 | F8 | G4z4
A3c | B2A2G4 | B2A2G4 | F8 | G4z2

